logo-editorial-1.svg

<svg xmlns="http://www.w3.org/2000/svg" width="1796" height="592" fill="none" viewBox="0 0 1796 592"><path fill="#39ff14" d="M1710.63 491.482H1796v85.426h-85.37z"/><path fill="#0a0a0a" d="M0 195.767h242.587v79.873H0zM243.37 3.915v81.44h-32.867q-35.997 0-48.517 17.227-11.738 17.227-11.738 46.201v433.82H55.56v-433.82q0-53.248 17.216-85.354 17.216-32.89 48.518-47.768Q152.594.001 194.07 0q11.738 0 24.259.783 13.302.783 25.041 3.132M269.365 388.402q0-60.296 26.606-105.714 26.606-46.201 73.559-72.043 46.953-25.84 106.425-25.841 60.256 0 106.426 25.841 46.952 25.842 73.559 72.043 26.606 45.418 26.606 105.714T655.94 494.899q-26.607 45.418-73.559 71.26-46.17 25.84-106.426 25.841-59.472 0-106.425-25.841t-73.559-71.26q-26.606-46.2-26.606-106.497m95.47 0q0 35.238 14.085 61.863 14.87 26.623 39.127 41.502 25.042 14.878 57.908 14.878t57.908-14.878 39.127-41.502q14.086-26.625 14.086-61.863 0-36.021-14.086-61.862-14.085-26.625-39.127-41.503-25.041-14.878-57.908-14.878-32.866 0-57.908 14.878-24.258 14.878-39.127 41.503-14.085 25.84-14.085 61.862M1000.81 194.201v88.487h-35.217q-52.43 0-82.167 28.19-29.736 27.408-29.736 83.789v187.936h-95.47V196.55h89.992l7.825 79.873h-9.39q7.826-38.37 36.779-62.645t75.124-24.275q10.173 0 20.346.783t21.914 3.915M1160.9 582.603h-95.47V195.767h87.64l11.74 68.91-10.96-9.397c7.83-18.793 22.18-35.238 43.04-49.333 20.87-14.617 46.96-21.926 78.26-21.926q50.865 0 82.95 26.624 32.865 26.625 45.39 70.477h-15.66q8.61-43.852 43.83-70.477c23.99-17.749 52.95-26.624 86.86-26.624 46.95 0 82.95 13.312 107.99 39.937q37.56 39.153 37.56 105.714v252.931h-94.69V354.73q0-41.502-21.12-62.645-20.355-21.926-54.78-21.926c-14.61 0-28.17 3.393-40.69 10.18-12 6.786-21.66 16.966-28.96 30.539q-10.95 20.36-10.95 52.466v219.259h-95.47V353.947c0-27.146-6.79-47.767-20.35-61.862q-20.34-21.144-54-21.143c-15.12 0-28.95 3.393-41.47 10.18-12.52 6.264-22.43 16.444-29.74 30.539q-10.95 20.36-10.95 51.683z"/></svg>

<svg xmlns="http://www.w3.org/2000/svg" width="1796" height="592" viewBox="0 0 1796 592" fill="none">
<path d="M1710.63 491.482H1796V576.908H1710.63V491.482Z" fill="#39FF14"/>
<path d="M0 195.767H242.587V275.64H0V195.767ZM243.37 3.91534V85.3545C238.153 85.3545 232.675 85.3545 226.937 85.3545C221.72 85.3545 216.242 85.3545 210.503 85.3545C186.505 85.3545 170.333 91.097 161.986 102.582C154.16 114.067 150.248 129.467 150.248 148.783V582.603H55.5603V148.783C55.5603 113.284 61.299 84.8324 72.7762 63.4285C84.2535 41.5026 100.426 25.5802 121.294 15.6614C142.161 5.22045 166.42 0 194.07 0C201.895 0 209.982 0.26102 218.329 0.783059C227.197 1.3051 235.544 2.34919 243.37 3.91534Z" fill="#0A0A0A"/>
<path d="M269.365 388.402C269.365 348.205 278.234 312.966 295.971 282.688C313.709 251.887 338.228 227.873 369.53 210.645C400.832 193.418 436.307 184.804 475.955 184.804C516.126 184.804 551.601 193.418 582.381 210.645C613.682 227.873 638.202 251.887 655.94 282.688C673.677 312.966 682.546 348.205 682.546 388.402C682.546 428.6 673.677 464.099 655.94 494.899C638.202 525.178 613.682 548.931 582.381 566.159C551.601 583.386 516.126 592 475.955 592C436.307 592 400.832 583.386 369.53 566.159C338.228 548.931 313.709 525.178 295.971 494.899C278.234 464.099 269.365 428.6 269.365 388.402ZM364.835 388.402C364.835 411.894 369.53 432.515 378.92 450.265C388.833 468.014 401.875 481.848 418.047 491.767C434.742 501.686 454.044 506.645 475.955 506.645C497.866 506.645 517.169 501.686 533.863 491.767C550.557 481.848 563.6 468.014 572.99 450.265C582.381 432.515 587.076 411.894 587.076 388.402C587.076 364.388 582.381 343.767 572.99 326.54C563.6 308.79 550.557 294.956 533.863 285.037C517.169 275.118 497.866 270.159 475.955 270.159C454.044 270.159 434.742 275.118 418.047 285.037C401.875 294.956 388.833 308.79 378.92 326.54C369.53 343.767 364.835 364.388 364.835 388.402Z" fill="#0A0A0A"/>
<path d="M1000.81 194.201V282.688H965.593C930.64 282.688 903.251 292.085 883.426 310.878C863.602 329.15 853.69 357.079 853.69 394.667V582.603H758.22V196.55H848.212L856.037 276.423H846.647C851.864 250.843 864.124 229.961 883.426 213.778C902.729 197.594 927.77 189.503 958.55 189.503C965.332 189.503 972.114 189.764 978.896 190.286C985.678 190.808 992.982 192.113 1000.81 194.201Z" fill="#0A0A0A"/>
<path d="M1160.9 582.603H1065.43V195.767H1153.07L1164.81 264.677L1153.85 255.28C1161.68 236.487 1176.03 220.042 1196.89 205.947C1217.76 191.33 1243.85 184.021 1275.15 184.021C1309.06 184.021 1336.71 192.896 1358.1 210.645C1380.01 228.395 1395.14 251.887 1403.49 281.122H1387.83C1393.57 251.887 1408.18 228.395 1431.66 210.645C1455.65 192.896 1484.61 184.021 1518.52 184.021C1565.47 184.021 1601.47 197.333 1626.51 223.958C1651.55 250.06 1664.07 285.298 1664.07 329.672V582.603H1569.38V354.73C1569.38 327.062 1562.34 306.18 1548.26 292.085C1534.69 277.467 1516.43 270.159 1493.48 270.159C1478.87 270.159 1465.31 273.552 1452.79 280.339C1440.79 287.125 1431.13 297.305 1423.83 310.878C1416.53 324.451 1412.88 341.94 1412.88 363.344V582.603H1317.41V353.947C1317.41 326.801 1310.62 306.18 1297.06 292.085C1283.5 277.989 1265.5 270.942 1243.06 270.942C1227.94 270.942 1214.11 274.335 1201.59 281.122C1189.07 287.386 1179.16 297.566 1171.85 311.661C1164.55 325.235 1160.9 342.462 1160.9 363.344V582.603Z" fill="#0A0A0A"/>
</svg>
